src/lib/packages/icons/src/assets/filled/location-crosshairs.svg

<svg width="24" height="24" viewBox="0 0 24 24" fill="none" xmlns="http://www.w3.org/2000/svg">
<path d="M21 11.25H18.96C18.961 11.255 18.96 11.2589 18.961 11.2639C18.618 7.98592 16.015 5.38206 12.737 5.03906C12.741 5.03906 12.746 5.03904 12.75 5.04004V3C12.75 2.59 12.41 2.25 12 2.25C11.59 2.25 11.25 2.59 11.25 3V5.04004C11.254 5.04004 11.259 5.04006 11.263 5.03906C7.985 5.38206 5.382 7.98592 5.039 11.2639C5.04 11.2589 5.03898 11.255 5.03998 11.25H3C2.59 11.25 2.25 11.59 2.25 12C2.25 12.41 2.59 12.75 3 12.75H5.03998C5.03898 12.745 5.04 12.7411 5.039 12.7361C5.382 16.0141 7.986 18.6179 11.263 18.9609C11.259 18.9609 11.254 18.961 11.25 18.96V21C11.25 21.41 11.59 21.75 12 21.75C12.41 21.75 12.75 21.41 12.75 21V18.96C12.746 18.96 12.741 18.9599 12.737 18.9609C16.015 18.6179 18.618 16.0141 18.961 12.7361C18.96 12.7411 18.961 12.745 18.96 12.75H21C21.41 12.75 21.75 12.41 21.75 12C21.75 11.59 21.41 11.25 21 11.25ZM12 14.5C10.619 14.5 9.5 13.381 9.5 12C9.5 10.619 10.619 9.5 12 9.5C13.381 9.5 14.5 10.619 14.5 12C14.5 13.381 13.381 14.5 12 14.5Z" fill="currentColor"/>
</svg>

<svg xmlns="http://www.w3.org/2000/svg" width="24" height="24" fill="none"><path fill="currentColor" d="M21 11.25h-2.04l.001.014a7.001 7.001 0 0 0-6.224-6.225l.013.001V3c0-.41-.34-.75-.75-.75s-.75.34-.75.75v2.04h.013a7.001 7.001 0 0 0-6.224 6.224l.001-.014H3c-.41 0-.75.34-.75.75s.34.75.75.75h2.04l-.001-.014a7.002 7.002 0 0 0 6.224 6.225l-.013-.001V21c0 .41.34.75.75.75s.75-.34.75-.75v-2.04h-.013a7.001 7.001 0 0 0 6.224-6.224l-.001.014H21c.41 0 .75-.34.75-.75s-.34-.75-.75-.75Zm-9 3.25a2.5 2.5 0 1 1 0-5 2.5 2.5 0 0 1 0 5Z"/></svg>
